!!!ONB: MCCC : IFS0587_02 : Extracted Monophonic Melody
!!!COM: Schubert, Franz
!!!OPR: Piano Sonata in A minor, Grande Sonate
!!!OMV: 2
!!!SCT: D.784 (published as Op.posth.143)
!!!ODT: 1823///
**kern
*staff1
=1
*clefG2
*k[b-e-a-d-g-]
*D-:
*M4/4
4.c
8f
4a
4dd
=2
4.cc
8b-
4g
4a
=3
2f
2b-
=4
4a
8.c
32d-
32d-
8.c
32c
32d-[
4d-]
=5
4.c
8f
4a
4dd
=6
4.dd
8ff
4aa
4bb-
=7
2bb-
4aa
4gg
=8
4ff
8.c
32d-
32d-
8.c
32c
32d-[
4d-]
=9
4.c
8f-
4g
4b-
=10
4.d
8f
4b-
4dd
=11
2ee-
4dd
4cc
=12
2dd-
4cc
4a
=13
4.cc
8b-
4g
4a
=14
2f
2g
=15
4a
8.c
32d-
32d-
8.c
32c
32d-[
4d-]
=16
4.ccc
8bb-
4gg
4aa
=17
2ff
2gg
=18
4ff
8.cc
32dd-
32dd-
8.cc
32cc
32dd-[
4dd-]
=19
4r
8.f
32g-
32f
8.e
32f
32g-
8.f
32e-
32d-
=20
8.c
32d-
32e-
8.d-
32c
32B-
8.A
32B-
32c
8.B-
32A-
32G-
=21
2d-
12d-
12f
12f
12a-
12dd-
12dd-
=22
4dd-
4cc
12d-
12f
12f
12f
12a
12a
=23
4b-
4a-
12B-
12d-
12d-
12d-
12g-
12g-
=24
12g-
12b-
12b-
12b-
12dd-
12dd-
12dd-
12gg-
12gg-
12gg-
12bb-
12bb-
=25
4ddd-
12ccc-
12bb-
12bb-
4ddd-
12ccc-
12bb-
12bb-
=26
4fff-
12ddd
12eee-
12eee-
4fff-
12ddd
12eee-
12eee-
=27
4fff-
4fff-
4fff-
4fff-
=28
4fff
4fff
4ggg-
4ggg-
=29
12ggg
12gg
12gg
12g
12gg
12gg
12g
12gg
12gg
12g
12gg
12gg
=30
12g
12gg
12gg
12g
12gg
12gg
12g
12gg
12gg
12g
12gg
12gg
=31
12ff-
12gg
12gg
12gg
12ccc
12ccc
12ccc
12fff-
12fff-
12fff-
12aaa
12aaa
=32
12aaa
12ggg
12ggg
12ggg
12fff
12fff
12fff
12ddd
12ddd
12ddd
12fff-
12fff-
=33
12ff-
12ccc
12ccc
12ddd
12ccc
12ccc
12ccc-
12fff
12fff
12ggg
12fff
12fff
=34
4fff-
8.ff-
32ff
32ff-
8.ee-
32ff-
32ff
4ff-
=35
12ff-
12gg
12gg
12gg
12ccc
12ccc
12ccc
12fff-
12fff-
12fff-
12aaa
12aaa
=36
12ff-
12aa
12aa
12aa
12ccc
12ccc
12ccc
12fff-
12fff-
12fff-
12fff
12fff
=37
2fff
12gg
12fff
12fff-
12ff
12fff-
12ddd
=38
4ccc
8.ff-
32ff
32ff-
8.ee-
32ff-
32ff
4ff-
=39
12g
12cc
12cc
12cc
12ff-
12ff-
12ff-
12gg
12gg
12gg
12bb-
12bb-
=40
12b-
12dd
12dd
12dd
12ff
12ff
12ff
12bb-
12bb-
12bb-
12ddd
12ddd
=41
2eee-
12ff
12eee-
12ddd
12ff
12ddd
12ccc
=42
2ddd-
12cc
12ddd-
12ccc
12cc
12bb-
12aa
=43
12ddd
12ccc
12ccc
12ccc
12bb-
12bb-
12bb-
12gg
12gg
12gg
12aa
12aa
=44
12a
12ff
12ff
12gg
12ff
12ff
12ff-
12bb-
12bb-
12ccc
12bb-
12bb-
=45
4aa
8.a
32b-
32a
8.g#
32a
32b-
4a
=46
12dddd
12cccc
12cccc
12cccc
12bbb-
12bbb-
12bbb-
12ggg
12ggg
12ggg
12aaa
12aaa
=47
12aa
12fff
12fff
12ggg
12fff
12fff
12bb-
12ggg
12ggg
12bbb-
12aaa
12ggg
=48
4fff
8.a
32b-
32a
8.g#
32a
32b-
4a
=49
4r
8.cc
32dd-
32cc
8.b
32cc
32dd-
4cc
=50
8.b
32cc
32dd-
8.cc
32b-
32a-
8.g
32a-
32b-
8.a-
32g
32f
=51
2c
8.cc
32dd
32ee
8.ff
32gg
32aa
=52
2bb-
32bb-
32ccc
32bb-
32ccc
32bb-
32ccc
32aa
32bb-
8fff-
8bb-
=53
32aa
32bb-
32aa
32bb-
32aa
32bb-
32aa-
32aa
8ccc
8aa
32gg
32aa
32gg
32aa
32gg
32aa
32ff#
32gg
8bb-
8gg
=54
4r
8.cc
32dd-
32cc
8.b
32cc
32dd-
4cc
=55
8.b
32cc
32dd-
8.cc
32b-
32a-
8.g
32a-
32b-
8.a-
32g
32f
=56
2e-
8.ee-
32ff
32gg
8.aa-
32bb-
32ccc
=57
2ddd-
32ddd-
32fff-
32ddd-
32fff-
32ddd-
32fff-
32ccc
32ddd-
8ggg
8ddd-
=58
32ccc
32ddd-
32ccc
32ddd-
32ccc
32ddd-
32bb-
32ccc
8eee-
8ccc
32bb-
32ccc
32bb-
32ccc
32bb-
32ccc
32aa
32bb-
8ddd-
8bb-
=59
4r
8.b-
32cc
32b-
8.a
32b-
32cc
4b-
=60
2b-
32b-
32cc
32b-
32cc
32b-
32cc
32a
32b-
8ff-
8b-
=61
32a
32b-
32a
32b-
32a
32b-
32a-
32a
8cc
8a
32g
32a
32g
32a
32g
32a
32f#
32g
8b-
8g
=62
*M1/4
4r
=63
*M4/4
4.c
8f
4a
4dd
=64
4.cc
8b-
4g
4a
=65
2f
2g
=66
4f
4r
4f
4r
=67
1f
==
*-
